X: 1
T: Stigvals fr\aan V\"astra H\"alsingland
O: Trad Sweden
B: "Musik till Svensak Folkdanser" uppt. av Ingvar Norman 1971
R: waltz
Z: 2006 John Chambers <jc@trillian.mit.edu> 
M: 3/4
L: 1/8
K: Am
E2 \
| "Am"AB A^G AB | cd cB A^G | "E7"A2 B2 ^G2 | "Am"A4 c2 \
| "Am"e^f e^d ef | "Em"ga g^f e^d | "B7"e2 ^f2 ^d2 | "E7"e4 :|
|: e2 \
| "Am"c3 dcB | c2 d2 e2 | "Dm(G7)"d3 ed^c | d2 e2 f2 \
| "Am(C)"e3 dcB | "Am(F)"c3 B"(E)"A^G | "E7"A2 B2 ^GB | "Am"A4 :|
